X:1
T:Tu scendi dalle stelle
T:Sant'Alfonso Maria de' Liguori (Napoli, 27 settembre 1696 – Nocera de' Pagani, 1º agosto 1787)
T:A Te che sei del mondo il creatore mancano panni e fuoco, o mio Signore, mancano panni e fuoco, o mio Signore. Caro eletto pargoletto quanto questa povertà più m’innamora giacché ti fece amor povero ancora, giacché ti fece amor povero ancora.
T:Pubblico dominio
Z:Pubblico dominio
L:1/8
Q:1/4=150
M:3/4
K:C
V:1 treble nm="Piano"
V:1
"^Con brio" G2 | G4 A2 | G4 F2 | F2 E4- | E2 z2 D2 | E4 F2 | (G2 F2) E2 | D6- | D2 z2 E2 | D4 E2 | %10
w: Tu|scen\- di|dal\- le|stel\- le|* o|Re del|cie * \-|lo|* e|vie\- niin|
 F4 E2 | !breath!D6 | A4 A2 | G2 A2 G2 | (F2 E2) D2 | E6- | E2 z2 E2 | D4 E2 | F4 E2 | !breath!D6 | %20
w: u\- na|grot\-|ta al|fred\- _ do~e~al|ge\- _ _|lo,|* e|vie niin|u\- na|grot\-|
 A4 A2 | (G2 A2) G2 | (F2 E2) D2 | !breath!C6 | E2 F2 G2 | F2 E2 F2 | D2 E2 F2 | E4 !breath!E2 | %28
w: ta al|fred\- _ do,~al|ge\- _ _|lo|O _ Bam\-|bi\- _ no|mi\- o di\-|vi\- no|
 E2 F2 G2 | (F2 E2) F2 | D2 E2 F2 | E6- | E2 z2 D2 | E4 F2 | (G2 F2) E2 | D6 | D2 z2 |: E2 | %38
w: io _ ti|veg \- go|qui a pe\-|nar|* O|Dio be\-|a _ _|to||Ah|
 D4 E2 | F4 E2 | !breath!D6 | A6 | (G2 A2) G2 | (F2 E2) D2 |1 E6- | E2 z2 :|2 C6- | C6 |] %48
w: quan\- to|ti co\-|stò|l'a\-|ver\- _ mi\-a|ma\- _ _|to,||to||

